images/Tech_ionic.svg

<svg width="114" height="39" viewBox="0 0 114 39" fill="none" xmlns="http://www.w3.org/2000/svg">
<path d="M19.142 10.4268C17.4167 10.4268 15.7301 10.9384 14.2955 11.8969C12.861 12.8555 11.7429 14.2179 11.0826 15.8119C10.4224 17.4059 10.2496 19.1599 10.5862 20.8521C10.9228 22.5443 11.7536 24.0986 12.9736 25.3186C14.1936 26.5386 15.748 27.3694 17.4402 27.706C19.1324 28.0426 20.8864 27.8699 22.4804 27.2096C24.0744 26.5494 25.4368 25.4313 26.3953 23.9967C27.3539 22.5621 27.8655 20.8755 27.8655 19.1502C27.8627 16.8375 26.9428 14.6202 25.3074 12.9848C23.672 11.3495 21.4548 10.4295 19.142 10.4268Z" fill="#989898"/>
<path d="M31.6673 11.2004C33.862 11.2004 35.6411 9.42129 35.6411 7.22666C35.6411 5.03203 33.862 3.25293 31.6673 3.25293C29.4727 3.25293 27.6936 5.03203 27.6936 7.22666C27.6936 9.42129 29.4727 11.2004 31.6673 11.2004Z" fill="#989898"/>
<path d="M36.5602 11.2208L36.3936 10.8562L36.1332 11.1583C35.4817 11.8975 34.6579 12.4645 33.7349 12.8092L33.4745 12.903L33.5786 13.1634C34.982 16.5383 35.1596 20.298 34.0807 23.7902C33.0018 27.2824 30.7344 30.2867 27.6719 32.2818C24.6095 34.277 20.9452 35.1372 17.3148 34.7131C13.6844 34.289 10.3171 32.6074 7.79696 29.96C5.27685 27.3127 3.763 23.8666 3.51808 20.2198C3.27315 16.5729 4.31261 12.9554 6.45609 9.99485C8.59958 7.03429 11.7118 4.9175 15.2529 4.01176C18.7939 3.10602 22.5404 3.46847 25.8421 5.03622L26.0869 5.1534L26.1937 4.893C26.5828 3.98788 27.1892 3.19273 27.9592 2.57803L28.2717 2.31763L27.9149 2.13274C25.2047 0.724131 22.1938 -0.00759217 19.1394 5.93964e-05C15.0039 0.000653234 10.9799 1.34047 7.66953 3.81898C4.35914 6.2975 1.94042 9.78141 0.775359 13.7493C-0.3897 17.7172 -0.238441 21.9558 1.2065 25.8305C2.65144 29.7053 5.31235 33.008 8.791 35.2442C12.2696 37.4804 16.3789 38.53 20.5039 38.2358C24.6288 37.9416 28.5476 36.3195 31.6737 33.6122C34.7997 30.9049 36.965 27.2581 37.8454 23.2174C38.7258 19.1768 38.274 14.9597 36.5576 11.1973L36.5602 11.2208Z" fill="#989898"/>
<path d="M52.1687 10.8174H48.1324V27.4831H52.1687V10.8174Z" fill="#989898"/>
<path d="M95.726 10.8174H91.6898V27.4831H95.726V10.8174Z" fill="#989898"/>
<path d="M82.3702 10.4268C79.5318 10.4268 77.3392 12.1376 76.8366 12.6089L76.5762 10.8174H73.217V27.4831H77.2533V17.3925C77.2533 15.4239 79.9406 13.7937 81.9066 13.7937C83.8727 13.7937 85.3491 15.6738 85.3491 17.9133V27.4831H89.3854V18.3117C89.3724 13.9422 87.487 10.4268 82.3702 10.4268Z" fill="#989898"/>
<path d="M106.322 24.4546C103.288 24.4546 101.283 22.0797 101.283 19.1502C101.283 16.2207 103.288 13.8458 106.322 13.8458C108.91 13.8458 110.488 16.3535 110.488 16.3535L113.413 14.3979C112.566 13.0959 111.59 12.3147 110.257 11.5074C109.106 10.8093 107.788 10.4359 106.442 10.4268C101.392 10.4268 97.5359 14.2182 97.5125 19.1502C97.5359 24.0822 101.392 27.8737 106.442 27.8737C107.782 27.8617 109.095 27.4884 110.241 26.793C111.574 25.9884 112.551 25.2045 113.397 23.9025L110.473 21.9469C110.473 21.9469 108.91 24.4546 106.322 24.4546Z" fill="#989898"/>
<path d="M62.6941 10.4269C61.549 10.4085 60.4118 10.6191 59.3493 11.0465C58.2867 11.4738 57.3204 12.1093 56.5069 12.9154C55.6935 13.7216 55.0494 14.6822 54.6125 15.7409C54.1756 16.7995 53.9547 17.9348 53.9629 19.08C53.9629 23.8063 57.4991 27.8738 62.754 27.8738C67.5116 27.8738 71.4098 24.2282 71.4098 19.1816C71.4098 13.4033 66.8762 10.4269 62.6941 10.4269ZM62.7436 13.8538C65.2461 13.8538 67.6157 15.8849 67.6157 19.1582C67.6157 22.3611 65.2565 24.4495 62.7332 24.4495C59.9599 24.4495 57.7856 22.2205 57.7856 19.1321C57.7856 16.1115 59.9443 13.8538 62.7566 13.8538H62.7436Z" fill="#989898"/>
</svg>

<?xml version="1.0" encoding="UTF-8" standalone="no"?><!DOCTYPE svg PUBLIC "-//W3C//DTD SVG 1.1//EN" "http://www.w3.org/Graphics/SVG/1.1/DTD/svg11.dtd"><svg width="100%" height="100%" viewBox="0 0 114 39" version="1.1" xmlns="http://www.w3.org/2000/svg" xmlns:xlink="http://www.w3.org/1999/xlink" xml:space="preserve" xmlns:serif="http://www.serif.com/" style="fill-rule:evenodd;clip-rule:evenodd;stroke-linejoin:round;stroke-miterlimit:2;"><path d="M19.142,10.427c-1.725,0 -3.412,0.511 -4.846,1.47c-1.435,0.959 -2.553,2.321 -3.213,3.915c-0.661,1.594 -0.833,3.348 -0.497,5.04c0.337,1.692 1.168,3.247 2.388,4.467c1.22,1.22 2.774,2.05 4.466,2.387c1.692,0.337 3.446,0.164 5.04,-0.496c1.594,-0.661 2.957,-1.779 3.915,-3.213c0.959,-1.435 1.471,-3.121 1.471,-4.847c-0.003,-2.312 -0.923,-4.53 -2.559,-6.165c-1.635,-1.635 -3.852,-2.555 -6.165,-2.558Z" style="fill:#9ea5a7;fill-rule:nonzero;"/><path d="M31.667,11.2c2.195,0 3.974,-1.779 3.974,-3.973c-0,-2.195 -1.779,-3.974 -3.974,-3.974c-2.194,0 -3.973,1.779 -3.973,3.974c-0,2.194 1.779,3.973 3.973,3.973Z" style="fill:#9ea5a7;fill-rule:nonzero;"/><path d="M36.56,11.221l-0.166,-0.365l-0.261,0.302c-0.651,0.74 -1.475,1.307 -2.398,1.651l-0.26,0.094l0.104,0.26c1.403,3.375 1.581,7.135 0.502,10.627c-1.079,3.492 -3.347,6.497 -6.409,8.492c-3.062,1.995 -6.727,2.855 -10.357,2.431c-3.631,-0.424 -6.998,-2.106 -9.518,-4.753c-2.52,-2.647 -4.034,-6.093 -4.279,-9.74c-0.245,-3.647 0.795,-7.265 2.938,-10.225c2.144,-2.961 5.256,-5.077 8.797,-5.983c3.541,-0.906 7.287,-0.544 10.589,1.024l0.245,0.117l0.107,-0.26c0.389,-0.905 0.995,-1.7 1.765,-2.315l0.313,-0.26l-0.357,-0.185c-2.71,-1.409 -5.721,-2.141 -8.776,-2.133c-4.135,0.001 -8.159,1.34 -11.469,3.819c-3.311,2.479 -5.73,5.962 -6.895,9.93c-1.165,3.968 -1.013,8.207 0.432,12.082c1.444,3.874 4.105,7.177 7.584,9.413c3.479,2.236 7.588,3.286 11.713,2.992c4.125,-0.294 8.044,-1.916 11.17,-4.624c3.126,-2.707 5.291,-6.354 6.171,-10.395c0.881,-4.04 0.429,-8.257 -1.287,-12.02l0.002,0.024Z" style="fill:#9ea5a7;fill-rule:nonzero;"/><rect x="48.132" y="10.817" width="4.036" height="16.666" style="fill:#9ea5a7;"/><rect x="91.69" y="10.817" width="4.036" height="16.666" style="fill:#9ea5a7;"/><path d="M82.37,10.427c-2.838,0 -5.031,1.711 -5.533,2.182l-0.261,-1.792l-3.359,0l-0,16.666l4.036,0l-0,-10.09c-0,-1.969 2.688,-3.599 4.654,-3.599c1.966,0 3.442,1.88 3.442,4.119l-0,9.57l4.036,0l-0,-9.171c-0.013,-4.37 -1.898,-7.885 -7.015,-7.885Z" style="fill:#9ea5a7;fill-rule:nonzero;"/><path d="M106.322,24.455c-3.034,0 -5.039,-2.375 -5.039,-5.305c-0,-2.929 2.005,-5.304 5.039,-5.304c2.588,0 4.166,2.508 4.166,2.508l2.925,-1.956c-0.847,-1.302 -1.823,-2.083 -3.156,-2.891c-1.151,-0.698 -2.469,-1.071 -3.815,-1.08c-5.05,0 -8.906,3.791 -8.929,8.723c0.023,4.932 3.879,8.724 8.929,8.724c1.34,-0.012 2.653,-0.386 3.799,-1.081c1.333,-0.805 2.31,-1.588 3.156,-2.89l-2.924,-1.956c-0,0 -1.563,2.508 -4.151,2.508Z" style="fill:#9ea5a7;fill-rule:nonzero;"/><path d="M62.694,10.427c-1.145,-0.018 -2.282,0.192 -3.345,0.62c-1.062,0.427 -2.029,1.062 -2.842,1.868c-0.813,0.807 -1.458,1.767 -1.894,2.826c-0.437,1.059 -0.658,2.194 -0.65,3.339c-0,4.726 3.536,8.794 8.791,8.794c4.758,0 8.656,-3.646 8.656,-8.692c-0,-5.779 -4.534,-8.755 -8.716,-8.755Zm0.05,3.427c2.502,0 4.872,2.031 4.872,5.304c-0,3.203 -2.359,5.292 -4.883,5.292c-2.773,0 -4.947,-2.229 -4.947,-5.318c-0,-3.02 2.158,-5.278 4.971,-5.278l-0.013,0Z" style="fill:#9ea5a7;fill-rule:nonzero;"/></svg>
